X:31 
T:GB/7c/31 Claudy Banks 
%%VWML:GB-7c-31-0
F:http://www.vwml.org/record/GB/7c/31
C:Transcribed by Simon Furey and Lewis Jones
L:1/4
M:4/4
I:linebreak $
K:Gmix
d | c B G G | e ^f g d | c B G G | G3 d | g2 g e |$ f a g d | f2 d/e/ f | g3 G | B B d/e/ f | g2 d e | f a g e |$ f3 e/f/ | g e d B | c e d B | c B G G |[M:2/4] G2 ||

